X:1
T:J. S. Bach
T:BWV 935 Little Prelude in D minor (A = 415 Hz)
T:Six Little Preludes No. 3
%%score { ( 1 3 ) | 2 }
L:1/8
M:3/8
K:F
V:1 treble nm="Harp"
V:3 treble 
V:2 bass 
V:1
 D/^C/D/A,/D/F/ | E/D/E/A,/E/G/ | FAA | B/4A/4B/4A/4B/4A/4B/4A/4B/4A/4B/4A/4 | B/4A/4B/A/f/d/A/ | %5
 B/A/B/G/B/d/ | e/f/e/c/g/B/ | A/G/A/F/A/c/ | d/_e/d/c/d/B/ | c/d/c/B/c/A/ | B/c/B/A/B/G/ | %11
 A/B/A/G/A/F/ | BgG | AfF | dfB | cfA | G/A/=B/c/d/e/ | f/_a/g/f/e/d/ | e/g/f/e/d/c/ | %19
 B/d/c/B/A/G/ | A/B/A/G/A/F/ | DG3/2A/4B/4 | F/4E/4D/4E/4F/4E/4F/4E/4 F | F3 | D/^C/D/A,/D/F/ | %25
 E/D/E/A,/E/G/ | FAA | B/4A/4B/4A/4B/4A/4B/4A/4B/4A/4B/4A/4 | B/4A/4B/A/f/d/A/ | B/A/B/G/B/d/ | %30
 e/f/e/c/g/B/ | A/G/A/F/A/c/ | d/_e/d/c/d/B/ | c/d/c/B/c/A/ | B/c/B/A/B/G/ | A/B/A/G/A/F/ | BgG | %37
 AfF | dfB | cfA | G/A/=B/c/d/e/ | f/_a/g/f/e/d/ | e/g/f/e/d/c/ | B/d/c/B/A/G/ | A/B/A/G/A/F/ | %45
 DG3/2A/4B/4 | F/4E/4D/4E/4F/4E/4F/4E/4 F | F3 | a/b/a/c'/a/f/ | g/a/g/c'/g/e/ | f/a/g/f/e/d/ | %51
 e/d/c/d/e/f/ | g^f/g/a/f/ | gd_e | c/_e/d/c/B/A/ | B/A/G/A/B/G/ | A/G/A/d/B/d/ | ^F/E/F/d/G/d/ | %58
 A/G/A/d/G/d/ | ^F/E/F/d/A/c/ | B/A/B/d/e/g/ | A2 a | d/fe/d/^c/ | d/e/f/e/f/d/ | ^c a2- | adc- | %66
 c B2- | B/A/G/F/E/^c/ | d/e/d/^c/d/f/ | G^ce- | e/B/A/G/F/E/ | D3 | a/b/a/c'/a/f/ | %73
 g/a/g/c'/g/e/ | f/a/g/f/e/d/ | e/d/c/d/e/f/ | g^f/g/a/f/ | gd_e | c/_e/d/c/B/A/ | B/A/G/A/B/G/ | %80
 A/G/A/d/B/d/ | ^F/E/F/d/G/d/ | A/G/A/d/G/d/ | ^F/E/F/d/A/c/ | B/A/B/d/e/g/ | A2 a | d/fe/d/^c/ | %87
 d/e/f/e/f/d/ | ^c a2- | adc- | c B2- | B/A/G/F/E/^c/ | d/e/d/^c/d/f/ | G^ce- | e/B/A/G/F/E/ | %95
 D3 |] %96
V:2
 z3 | z3 | D,/^C,/D,/A,,/D,/F,/ | E,/D,/E,/A,,/E,/G,/ | F,D,F, | G,G,, z | z C,E, | F,F,, z | %8
 B,GG, | A,FF, | G,EE, | F,C_E | D/_E/D/C/D/B,/ | C/D/C/B,/C/A,/ | B,/C/B,/A,/B,/G,/ | %15
 A,/B,/A,/G,/A,/F,/ | =B,DF | DB,G, | CG,E, | C,D,E, | F,/E,/F,/C,/F,/A,/ | B,/A,/B,/G,/B,/D/ | %22
 C/D/C/B,/A,/G,/ | z/ F,/C,/A,,/F,, | z3 | z3 | D,/^C,/D,/A,,/D,/F,/ | E,/D,/E,/A,,/E,/G,/ | %28
 F,D,F, | G,G,, z | z C,E, | F,F,, z | B,GG, | A,FF, | G,EE, | F,C_E | D/_E/D/C/D/B,/ | %37
 C/D/C/B,/C/A,/ | B,/C/B,/A,/B,/G,/ | A,/B,/A,/G,/A,/F,/ | =B,DF | DB,G, | CG,E, | C,D,E, | %44
 F,/E,/F,/C,/F,/A,/ | B,/A,/B,/G,/B,/D/ | C/D/C/B,/A,/G,/ | z/ F,/C,/A,,/F,, | FF,F | EA,C | %50
 D=B,G, | CE,G, | C,/D,/C,/_E,/C,/A,,/ | B,,/C,/B,,/D,/B,,/G,,/ | A,,/C,/B,,/A,,/G,,/^F,,/ | %55
 G,,/A,,/B,,/C,/D,/E,/ | ^F,D,G, | A,D,B, | CD,B, | A,D,^F, | G,/^F,/G,/B,/G,/E,/ | %61
 ^C,/=B,,/C,/E,/C,/A,,/ | F,,G,,A,, | D,/^C,/D,/A,,/D,/F,/ | E,/D,/E,/A,,/E,/G,/ | %65
 ^F,/E,/F,/D,/F,/A,/ | G,/^F,/G,/D,/G,/B,/ | ^C,A,,G, | F,/G,/F,/E,/F,/D,/ | B,/C/B,/A,/B,/G,/ | %70
 F,G,A, | z/ D,/A,,/F,,/D,, | FF,F | EA,C | D=B,G, | CE,G, | C,/D,/C,/_E,/C,/A,,/ | %77
 B,,/C,/B,,/D,/B,,/G,,/ | A,,/C,/B,,/A,,/G,,/^F,,/ | G,,/A,,/B,,/C,/D,/E,/ | ^F,D,G, | A,D,B, | %82
 CD,B, | A,D,^F, | G,/^F,/G,/B,/G,/E,/ | ^C,/=B,,/C,/E,/C,/A,,/ | F,,G,,A,, | %87
 D,/^C,/D,/A,,/D,/F,/ | E,/D,/E,/A,,/E,/G,/ | ^F,/E,/F,/D,/F,/A,/ | G,/^F,/G,/D,/G,/B,/ | %91
 ^C,A,,G, | F,/G,/F,/E,/F,/D,/ | B,/C/B,/A,/B,/G,/ | F,G,A, | z/ D,/A,,/F,,/D,, |] %96
V:3
 x3 | x3 | x3 | x3 | x3 | x3 | x3 | x3 | x3 | x3 | x3 | x3 | x3 | x3 | x3 | x3 | x3 | x3 | x3 | %19
 x3 | x3 | x3 | x3 | A,3 | x3 | x3 | x3 | x3 | x3 | x3 | x3 | x3 | x3 | x3 | x3 | x3 | x3 | x3 | %38
 x3 | x3 | x3 | x3 | x3 | x3 | x3 | x3 | x3 | A,3 | x3 | x3 | x3 | x3 | x3 | x3 | x3 | x3 | x3 | %57
 x3 | x3 | x3 | x3 | x3 | x3 | x3 | x3 | x3 | x3 | x3 | x3 | x3 | x3 | F,3 | x3 | x3 | x3 | x3 | %76
 x3 | x3 | x3 | x3 | x3 | x3 | x3 | x3 | x3 | x3 | x3 | x3 | x3 | x3 | x3 | x3 | x3 | x3 | x3 | %95
 F,3 |] %96

